!!!OTL: ZAU DICH FRAU
!!!ARE: Europa, Mitteleuropa, Deutschland, Rheinland, Koeln
!!!SCT: E1720
!!!YEM: Copyright 1995, estate of Helmut Schaffrath.
**kern
*ICvox
*Ivox
*M2/4
*k[b-e-]
*B-:
=1
{8f
8b-
4b-
=2
8g
8cc
4cc
=3
8dd
8b-
8b-
8b-
=4
8cc
8f
4f}
=5
{8f
8b-
4b-
=6
8g
8cc
4cc
=7
8dd
8b-
8cc
8a
=8
4b-
4r}
=9
{8cc
8cc
8cc
8b-
=10
8a
8g
4f
=11
8cc
8cc
8cc
8b-
=12
8a
8g
4f}
=13
{8f
8b-
4b-
=14
8f
8cc
8cc
8cc
=15
8dd
8b-
8cc
8a
=16
4b-}
{4ff
=17
4.ff
8ee-
=18
4dd
4ff
=19
4.ff
8ee-
=20
2dd}
=21
{4gg
4ff
=22
8ee-
8ee-
4dd
=23
4cc
4b-
=24
2cc}
=25
{8f
8b-
4b-
=26
8g
8cc
4cc
=27
8dd
8b-
8b-
8b-
=28
8cc
8f
4f}
=29
{8f
8b-
4b-
=30
8g
8cc
4cc
=31
8dd
8b-
8cc
8a
=32
4b-
4r}
=33
{8cc
8cc
8cc
8b-
=34
8a
8g
4f
=35
8cc
8cc
8cc
8b-
=36
8a
8g
4f}
=37
{8f
8b-
4b-
=38
8f
8cc
8cc
8cc
=39
8dd
8b-
8cc
8a
=40
4b-
4r}
==
!!!AGN: Spott - Lied, Satire
!!!ONB: ESAC (Essen Associative Code) Database: ERK3
!!!AMT: simple duple
!!!AIN: vox
!!!EED: Helmut Schaffrath
!!!EEV: 1.0
*-
